lg/malinajs.svg

<svg viewBox="0 0 256 328" version="1.1" xmlns="http://www.w3.org/2000/svg" preserveAspectRatio="xMidYMid" height="1em" width="1em">
  <g>
    <path d="M131.488263,0.0140271627 C137.615869,0.433007409 142.358613,10.1696655 144.464657,24.510562 L144.808687,27.0881439 L144.959696,28.4109822 L144.959696,28.4109822 L145.218747,31.1211556 L145.326407,32.5070518 L145.326407,32.5070518 L145.49704,35.3368651 C145.54386,36.2925501 145.580538,37.2603292 145.606817,38.239243 L145.654209,41.2084293 C145.672513,44.7092128 145.560327,48.3346442 145.306724,52.0435899 C145.016893,56.2823851 144.558922,60.3879741 143.957325,64.3017477 L143.47958,67.2001968 L142.950273,70.0212205 C142.395951,72.8016999 141.767734,75.4577993 141.075962,77.9647929 L140.363389,80.4211689 L139.610744,82.7726463 C135.622518,94.6414956 130.121787,102.090021 124.534851,101.708009 C118.227021,101.276706 113.386714,90.9715662 111.379504,75.9342726 L111.063418,73.3110545 C111.015448,72.8664453 110.969854,72.4182129 110.926668,71.9664774 L110.696707,69.2149849 C110.262178,63.1664916 110.245414,56.5664888 110.71639,49.6784467 L110.964906,46.5252423 C111.104545,44.9620439 111.266966,43.4196381 111.450877,41.9011157 L111.846971,38.8968309 L112.298073,35.9617296 C112.616633,34.0292776 112.970334,32.146611 113.356112,30.3210559 L113.958453,27.6264728 L114.276948,26.3130235 L114.276948,26.3130235 L114.947152,23.7572437 C115.98481,19.9967533 117.165465,16.5717509 118.454214,13.5656861 L119.329011,11.6246235 L120.233539,9.81318523 C123.601835,3.4156049 127.523341,-0.257077702 131.488263,0.0140271627 Z M8.87575335,41.4778916 C10.5508153,35.8484998 20.2620004,33.322071 33.7477346,34.0633808 L35.1561003,34.1517314 L37.7823384,34.3722291 L39.1255716,34.5115051 L39.1255716,34.5115051 L40.4878307,34.6701731 L43.266276,35.0458069 L44.6808867,35.2628336 L47.5569461,35.755459 L49.0168193,36.0311186 L49.0168193,36.0311186 L50.4902047,36.3263834 L53.4743611,36.9758504 C55.4793644,37.4350635 57.5140986,37.9468007 59.5701619,38.5113869 L62.6692033,39.3979437 L65.7487912,40.349878 L67.2626084,40.8444057 L70.235075,41.8683015 L71.6924386,42.3967572 L75.2464876,43.7623862 L75.2464876,43.7623862 L75.9413357,44.0426827 L78.6648436,45.18587 C79.8549453,45.7014382 81.0174107,46.2266259 82.1502079,46.7599915 L83.8268986,47.5659931 L86.2551596,48.7956306 C100.107968,56.0348266 108.412449,64.3723689 106.574607,70.5488176 C104.899545,76.1782094 95.1883602,78.7046382 81.702626,77.9633284 L80.2942603,77.8749778 L77.6680222,77.6544801 L76.324789,77.5152041 L76.324789,77.5152041 L74.9625298,77.3565361 L72.1840846,76.9809023 L70.7694739,76.7638756 L70.7694739,76.7638756 L69.338988,76.527335 L66.4335413,75.9955906 L63.4740461,75.3854253 C59.9922239,74.6277256 56.412918,73.7094194 52.7811573,72.6287655 L50.4650927,71.9195404 L50.4650927,71.9195404 L48.1877522,71.1823035 L45.2152856,70.1584077 L43.757922,69.629952 L40.9041487,68.5423052 C38.4437787,67.5734837 36.0816664,66.5610912 33.8333166,65.5161284 L31.623462,64.4607161 L29.195201,63.2310786 C15.3423926,55.9918826 7.03791109,47.6543403 8.87575335,41.4778916 Z M247.133833,41.3467126 C249.024185,47.6996313 240.184373,56.3388987 225.613521,63.7176363 L223.132838,64.9351461 C221.02281,65.9389977 218.807587,66.9147324 216.500562,67.8528475 L213.688924,68.9599201 C211.786266,69.6851193 209.828284,70.3838092 207.821834,71.0511245 L204.776668,72.0279582 L203.228429,72.4975865 C201.67196,72.9607239 200.125126,73.3940423 198.591471,73.7976788 L195.542783,74.5654166 L192.535541,75.2542463 C190.545928,75.6872176 188.588147,76.0677458 186.670599,76.396156 L183.825502,76.8497233 C182.887895,76.98791 181.961396,77.1131077 181.047057,77.2253571 L178.341564,77.5233011 C162.784557,79.0351859 151.272822,76.5940873 149.434979,70.4176386 C147.670651,64.4882478 155.253488,56.5671933 168.119016,49.5382186 L170.592217,48.2314439 C173.125339,46.9365314 175.835251,45.6793175 178.695159,44.4788111 L181.463375,43.353225 C184.743868,42.061463 188.199042,40.8471605 191.792145,39.736393 L193.340383,39.2667647 C195.415675,38.6492482 197.473839,38.0847432 199.506473,37.5729247 L202.535225,36.8446715 C205.54273,36.1558519 208.483341,35.5852118 211.3287,35.1316546 L214.141258,34.7170845 L216.884015,34.3803261 C233.118545,32.5927233 245.243481,34.993794 247.133833,41.3467126 Z" fill="#008000"/>
    <path d="M83.5338107,100.216217 C61.3463633,100.226649 43.3654565,118.086166 43.3654565,140.11339 C43.3654565,162.146145 61.3550618,180.007953 83.5480835,180.010561 C105.742963,180.010561 123.735468,162.147989 123.735468,140.11339 C123.735468,118.07879 105.742963,100.216217 83.5480835,100.216217 C83.5433259,100.216217 83.5385683,100.216217 83.5338107,100.216217 L83.5338107,100.216217 Z M172.177276,100.216218 C149.989828,100.226649 132.008922,118.086166 132.008922,140.11339 C132.008922,162.146145 149.998527,180.007953 172.191549,180.010561 C194.386428,180.010561 212.378933,162.147989 212.378933,140.11339 C212.378933,118.07879 194.386428,100.216218 172.191549,100.216218 C172.188377,100.216218 172.185205,100.216218 172.182034,100.216218 L172.177276,100.216218 Z M35.4678528,149.02436 C15.237684,151.399432 -0.00250069997,168.426326 0,188.650349 C0.00264605851,210.681246 17.9914766,228.540155 40.182627,228.542763 C62.3756354,228.542763 80.3673652,210.683091 80.3700117,188.650349 C80.3685504,188.437822 80.3653785,188.225309 80.3604965,188.012832 C58.1946066,186.692246 39.7328471,170.656576 35.4678528,149.019603 L35.4678528,149.02436 L35.4678528,149.02436 Z M220.533447,149.366907 C216.267997,171.005497 197.80375,187.041628 175.636046,188.360136 C175.63275,188.572626 175.631281,188.785138 175.631281,188.997653 C175.633935,211.030395 193.625664,228.890067 215.818673,228.890067 C238.007965,228.884852 255.993897,211.026706 255.996543,188.997653 C256.001472,168.771816 240.760674,151.742191 220.528689,149.366907 L220.533447,149.366907 L220.533447,149.366907 Z M127.998271,160.965918 C120.498503,176.571994 105.178648,187.016196 87.8149994,188.360136 C87.8149994,188.510792 87.8149994,188.661451 87.8149994,188.812107 C87.8149994,210.844862 105.805249,228.70667 127.998271,228.709279 C150.193151,228.709279 168.185656,210.846707 168.185656,188.812107 C168.185656,188.661443 168.183344,188.510783 168.180898,188.360136 C150.817894,187.016196 135.498039,176.571994 127.998271,160.965918 L127.998271,160.965918 Z M83.5480835,210.111849 C76.0483153,225.717926 60.7284607,236.162127 43.3648118,237.506068 C43.3648118,237.656723 43.3648118,237.807383 43.3648118,237.958039 C43.3681025,259.988936 61.3569331,277.847845 83.5480835,277.850453 C105.741092,277.850453 123.732822,259.99078 123.735468,237.958039 C123.735468,237.807374 123.733156,237.656714 123.730711,237.506068 C106.367706,236.162127 91.0478517,225.717926 83.5480835,210.111849 Z M172.191549,210.111849 C164.69178,225.717926 149.371926,236.162127 132.008922,237.506068 C132.006476,237.656714 132.004164,237.807374 132.004164,237.958039 C132.006811,259.99078 149.99854,277.850453 172.191549,277.850453 C194.384557,277.850453 212.376287,259.99078 212.378933,237.958039 C212.376621,237.807365 212.37345,237.656706 212.369418,237.506068 C195.006414,236.162127 179.686559,225.717926 172.186791,210.111849 L172.191549,210.111849 L172.191549,210.111849 Z M127.993514,259.352933 C120.49458,274.957624 105.176897,285.401582 87.8149994,286.747151 C87.8149994,286.897807 87.8149994,287.048466 87.8149994,287.199122 C87.8149994,309.231877 105.805249,327.093685 127.998271,327.096294 C138.656628,327.096294 148.878447,322.892854 156.415043,315.410683 C163.95164,307.928512 168.185656,297.78051 168.185656,287.199122 C168.185656,287.048457 168.183344,286.897798 168.180898,286.747151 C150.817894,285.40321 135.498039,274.959009 127.998271,259.352933 L127.993514,259.352933 L127.993514,259.352933 Z" fill="#FF0000"/>
  </g>
</svg>

<svg viewBox="0 0 256 328" xmlns="http://www.w3.org/2000/svg" preserveAspectRatio="xMidYMid" height="1em" width="1em">
  <path d="M131.488.014c6.128.419 10.87 10.156 12.977 24.497l.344 2.577.15 1.323.26 2.71.107 1.386.171 2.83c.047.956.084 1.923.11 2.902l.047 2.97c.019 3.5-.094 7.126-.347 10.835-.29 4.238-.748 8.344-1.35 12.258l-.477 2.898-.53 2.821a112.937 112.937 0 0 1-1.874 7.944l-.713 2.456-.752 2.352c-3.988 11.868-9.49 19.317-15.076 18.935-6.308-.431-11.148-10.736-13.155-25.774l-.317-2.623a107.27 107.27 0 0 1-.136-1.345l-.23-2.751c-.435-6.049-.452-12.649.02-19.537l.248-3.153c.14-1.563.302-3.105.486-4.624l.396-3.004.451-2.935a127.98 127.98 0 0 1 1.058-5.64l.602-2.696.319-1.313.67-2.556c1.038-3.76 2.218-7.185 3.507-10.191l.875-1.941.905-1.812c3.368-6.397 7.29-10.07 11.254-9.799ZM8.876 41.478c1.675-5.63 11.386-8.156 24.872-7.415l1.408.089 2.626.22 1.344.14 1.362.158 2.778.376 1.415.217 2.876.492 1.46.276 1.473.295 2.984.65c2.005.46 4.04.97 6.096 1.535l3.1.887 3.079.952 1.514.494 2.972 1.024 1.457.529 3.554 1.365.695.28 2.724 1.144c1.19.515 2.352 1.04 3.485 1.574l1.677.806 2.428 1.23c13.853 7.239 22.157 15.576 20.32 21.753-1.675 5.63-11.387 8.156-24.872 7.414l-1.409-.088-2.626-.22-1.343-.14-1.362-.158-2.779-.376-1.415-.217-1.43-.237-2.905-.531-2.96-.61a147.66 147.66 0 0 1-10.693-2.757l-2.316-.71-2.277-.737-2.973-1.024-1.457-.528-2.854-1.088a128.518 128.518 0 0 1-7.07-3.026l-2.21-1.055-2.429-1.23c-13.853-7.24-22.157-15.577-20.32-21.753Zm238.258-.131c1.89 6.353-6.95 14.992-21.52 22.37l-2.481 1.218a125.444 125.444 0 0 1-6.632 2.918l-2.812 1.107a144.41 144.41 0 0 1-5.867 2.091l-3.045.977-1.549.47a151.19 151.19 0 0 1-4.637 1.3l-3.048.767-3.007.69c-1.99.432-3.948.813-5.865 1.141l-2.845.454a116.2 116.2 0 0 1-2.779.375l-2.705.298c-15.557 1.512-27.07-.929-28.907-7.105-1.764-5.93 5.818-13.85 18.684-20.88l2.473-1.307a119.182 119.182 0 0 1 8.103-3.752l2.768-1.126a145.639 145.639 0 0 1 10.33-3.617l1.547-.47a150.41 150.41 0 0 1 6.166-1.693l3.03-.728a133.82 133.82 0 0 1 8.793-1.713l2.812-.415 2.743-.337c16.235-1.787 28.36.614 30.25 6.967Z" fill="green"/>
  <path d="M83.534 100.216c-22.188.01-40.169 17.87-40.169 39.897 0 22.033 17.99 39.895 40.183 39.898 22.195 0 40.187-17.863 40.187-39.898 0-22.034-17.992-39.897-40.187-39.897h-.014Zm88.643 0c-22.187.01-40.168 17.87-40.168 39.897 0 22.033 17.99 39.895 40.183 39.898 22.194 0 40.187-17.863 40.187-39.898 0-22.034-17.993-39.897-40.187-39.897h-.015Zm-136.71 48.808C15.238 151.4-.002 168.426 0 188.65c.003 22.031 17.991 39.89 40.183 39.893 22.193 0 40.184-17.86 40.187-39.893a39.61 39.61 0 0 0-.01-.637c-22.165-1.32-40.627-17.356-44.892-38.993v.004Zm185.066.343c-4.265 21.638-22.73 37.675-44.897 38.993-.003.213-.005.425-.005.638.003 22.032 17.995 39.892 40.188 39.892 22.189-.005 40.175-17.863 40.178-39.892.004-20.226-15.236-37.256-35.468-39.631h.004Zm-92.535 11.599c-7.5 15.606-22.82 26.05-40.183 27.394v.452c0 22.033 17.99 39.895 40.183 39.897 22.195 0 40.188-17.862 40.188-39.897 0-.15-.003-.301-.005-.452-17.363-1.344-32.683-11.788-40.183-27.394Zm-44.45 49.146c-7.5 15.606-22.82 26.05-40.183 27.394v.452c.003 22.03 17.992 39.89 40.183 39.892 22.193 0 40.185-17.86 40.187-39.892 0-.15-.002-.301-.004-.452-17.363-1.344-32.683-11.788-40.183-27.394Zm88.644 0c-7.5 15.606-22.82 26.05-40.183 27.394-.003.15-.005.301-.005.452.003 22.033 17.995 39.892 40.188 39.892s40.184-17.86 40.187-39.892c-.002-.15-.006-.301-.01-.452-17.363-1.344-32.682-11.788-40.182-27.394h.005Zm-44.198 49.24c-7.5 15.606-22.817 26.05-40.179 27.395v.452c0 22.033 17.99 39.895 40.183 39.897 10.659 0 20.88-4.203 28.417-11.685a39.752 39.752 0 0 0 11.766-28.664c-17.363-1.344-32.683-11.788-40.183-27.394h-.004Z" fill="red"/>
</svg>
